X:1055
T: Pivot [The]
T: Mhaidhdeog [An]
S: B.Breathnach:"Ceol Rince na hEireann" IV/213
Z: B.Black
L: 1/8
M: 4/4
R: hornpipe
K: D
FA|d2 df edcB|A^GAB A=GFE|DFAF DBAF|B2 E2 E2 A2|
d2 df edcB|A^GAB A=GFE|DFAF BGEC|D2 D2 D2 :|
cd|efge dcBA|defg a2 fa|g2 eg f2 df|edef e2 cd|
efge dcBA|defg a2 fa|g2 eg f2 df|1 ecdB A2 :|2\
edef d2 Bc ||
